icons/communication/email-heart-24.svg

<svg width="24" height="24" viewBox="0 0 24 24" fill="none" xmlns="http://www.w3.org/2000/svg">
<path fill-rule="evenodd" clip-rule="evenodd" d="M15.9503 15.4632C15.2135 15.4634 14.4321 16.1513 14.4318 17.124C14.4315 18.2956 15.293 19.3944 16.277 20.2504C16.8128 20.7127 17.3892 21.1234 17.9988 21.4776C18.1013 21.418 18.2379 21.3364 18.398 21.234C18.8613 20.9385 19.3041 20.609 19.7214 20.249C20.7053 19.3938 21.5679 18.294 21.5682 17.1224C21.5685 16.1493 20.787 15.4619 20.0506 15.4621C19.5323 15.4622 19.1012 15.6936 18.785 16.0915C18.3843 16.5958 17.6158 16.5957 17.2156 16.0918C16.8999 15.6943 16.4687 15.4631 15.9503 15.4632ZM13 17.1244C13.0005 15.3442 14.4231 14.0016 15.9507 14.0011C16.7596 14.0009 17.4625 14.3103 18.0007 14.8149C18.5392 14.31 19.2419 14.0002 20.051 14C21.5781 13.9996 23.0005 15.3414 23 17.122C22.9995 18.987 21.6801 20.4662 20.6481 21.363L20.6462 21.3646C20.1763 21.7702 19.6785 22.1408 19.1566 22.4736C18.9539 22.6032 18.7843 22.7035 18.6649 22.7723L18.664 22.7728C18.5981 22.8106 18.5324 22.847 18.468 22.8818C18.4539 22.8894 18.4396 22.8965 18.4251 22.9031C18.2917 22.9668 18.146 23 17.9984 23C17.8381 23 17.6801 22.961 17.5375 22.8862L17.5338 22.8842C17.4662 22.8482 17.3992 22.8112 17.3328 22.773C16.6308 22.3688 15.967 21.8976 15.3515 21.3665L15.3494 21.3647C14.3177 20.4674 12.9995 18.9894 13 17.1244Z" fill="black"/>
<path fill-rule="evenodd" clip-rule="evenodd" d="M0 4.75C0 3.7835 0.783502 3 1.75 3H22.25C23.2165 3 24 3.7835 24 4.75V11.375C24 11.7892 23.6642 12.125 23.25 12.125C22.8358 12.125 22.5 11.7892 22.5 11.375V7.18716L12.7516 11.8231C12.276 12.0492 11.724 12.0492 11.2484 11.8231L1.5 7.18715V18.75C1.5 18.8881 1.61193 19 1.75 19H9.25C9.66421 19 10 19.3358 10 19.75C10 20.1642 9.66421 20.5 9.25 20.5H1.75C0.783502 20.5 0 19.7165 0 18.75V4.75ZM1.5 5.52618L11.8926 10.4685C11.9606 10.5008 12.0394 10.5008 12.1074 10.4685L22.5 5.52618V4.75C22.5 4.61193 22.3881 4.5 22.25 4.5H1.75C1.61193 4.5 1.5 4.61193 1.5 4.75V5.52618Z" fill="black"/>
</svg>

<svg xmlns="http://www.w3.org/2000/svg" width="24" height="24"><path fill-rule="evenodd" d="M15.95 15.463c-.736 0-1.518.688-1.518 1.661 0 1.172.861 2.27 1.845 3.126.536.463 1.112.873 1.722 1.228a11.469 11.469 0 001.723-1.229c.983-.855 1.846-1.955 1.846-3.127 0-.973-.781-1.66-1.517-1.66-.519 0-.95.232-1.266.63-.4.504-1.17.504-1.57 0-.315-.398-.746-.629-1.265-.629zM13 17.124c0-1.78 1.423-3.122 2.95-3.123.81 0 1.512.31 2.05.814A2.957 2.957 0 0120.052 14c1.527 0 2.95 1.341 2.949 3.122 0 1.865-1.32 3.344-2.352 4.241l-.002.002a12.87 12.87 0 01-1.981 1.407h-.001a8.857 8.857 0 01-.239.131.99.99 0 01-.887-.017l-.004-.002a12.845 12.845 0 01-2.182-1.518l-.003-.001c-1.031-.898-2.35-2.376-2.349-4.24z"/><path fill-rule="evenodd" d="M0 4.75C0 3.784.784 3 1.75 3h20.5c.966 0 1.75.784 1.75 1.75v6.625a.75.75 0 01-1.5 0V7.187l-9.748 4.636a1.75 1.75 0 01-1.504 0L1.5 7.187V18.75c0 .138.112.25.25.25h7.5a.75.75 0 010 1.5h-7.5A1.75 1.75 0 010 18.75v-14zm1.5.776l10.393 4.943a.25.25 0 00.214 0L22.5 5.526V4.75a.25.25 0 00-.25-.25H1.75a.25.25 0 00-.25.25v.776z"/></svg>
